img/icons/dog_vet_24x.svg

<svg width="63" height="63" viewBox="0 0 63 63" fill="none" xmlns="http://www.w3.org/2000/svg">
<path d="M48.2344 54.1406V45.2812H54.1406V56.1094C54.1406 57.1537 53.7258 58.1552 52.9874 58.8936C52.2489 59.632 51.2474 60.0469 50.2031 60.0469H48.2344V54.1406Z" fill="#F6BB92"/>
<path d="M52.8789 39.375L53.8269 37.0417L54.6677 34.9721C55.1181 33.8593 55.2393 32.6324 55.0157 31.4477C54.7921 30.2631 54.2339 29.1745 53.4123 28.3208C52.3157 27.1813 51.6997 25.6359 51.6998 24.0246V18.375H27.0505V24.025C27.0505 25.6364 26.4345 27.1817 25.3379 28.3213C24.5163 29.1748 23.9581 30.2633 23.7344 31.4479C23.5107 32.6324 23.6317 33.8593 24.082 34.9721L24.972 37.1715L52.8789 39.375Z" fill="#834B10"/>
<path d="M54.1406 40.441C54.1406 39.0428 53.6447 37.6901 52.741 36.6233C51.8373 35.5565 50.5844 34.8449 49.2053 34.6151L48.2344 34.4532L43.1507 33.6059L39.375 37.4064L35.5596 33.5767L28.5469 34.4532V60.047H48.2344V52.172C49.1248 51.2812 49.687 50.1149 49.8292 48.8634C49.9713 47.6119 49.6851 46.3492 49.0172 45.2814H54.1406V40.441Z" fill="#5D62B5"/>
<path d="M52.5 23.625H26.25V16.2132C26.25 12.6094 27.6328 9.15319 30.0942 6.6049C32.5556 4.05661 35.894 2.625 39.375 2.625C42.856 2.625 46.1944 4.05661 48.6558 6.6049C51.1172 9.15319 52.5 12.6094 52.5 16.2132V23.625Z" fill="#834B10"/>
<path d="M47.25 16.7344V15.75L46.2656 10.8281H32.4844L31.5 15.75V16.7344C30.7168 16.7344 29.9656 17.0455 29.4118 17.5993C28.858 18.1531 28.5469 18.9043 28.5469 19.6875C28.5469 20.4707 28.858 24.3837 29.4118 24.9375C29.9656 25.4913 29.6863 24.7763 30.4695 24.7763L30.1875 24.9375H31.5C31.5 26.765 33.2103 27.2052 34.5026 28.4974C35.7948 29.7897 37.5475 30.5156 39.375 30.5156C41.2025 30.5156 42.9552 29.7897 44.2474 28.4974C45.5397 27.2052 46.2656 26.6038 46.2656 24.7763L47.25 24.9375H48.5625C49.3457 24.9375 48.7844 25.3302 49.3382 24.7763C49.892 24.2225 50.2031 20.4707 50.2031 19.6875C50.2031 18.9043 49.892 18.1531 49.3382 17.5993C48.7844 17.0455 48.0332 16.7344 47.25 16.7344Z" fill="#F6BB92"/>
<path d="M38.3906 41.1652V60.0468H16.3652C17.0995 58.9038 17.9542 57.8428 18.9148 56.882L18.9874 56.8094C20.7474 55.0523 22.1554 52.9749 23.1353 50.6891C23.5216 49.7884 23.9068 48.8877 24.1873 48.2343C24.442 47.64 24.6094 47.2499 24.6094 47.2499H21.7768C20.8989 47.2492 20.0464 46.9553 19.3545 46.415C18.6626 45.8747 18.1709 45.1188 17.9575 44.2673L17.4727 42.328L17.3459 41.8211C17.2734 41.5309 17.2679 41.2279 17.33 40.9353C17.392 40.6426 17.52 40.368 17.7041 40.1322C17.8881 39.8963 18.1236 39.7056 18.3924 39.5744C18.6612 39.4432 18.9565 39.375 19.2556 39.3749H22.6406C23.2753 37.469 24.5712 35.8531 26.2939 34.8197L26.7246 34.5625C27.8317 33.8986 29.0883 33.5245 30.3783 33.4748C31.6683 33.4251 32.95 33.7015 34.1049 34.2783L34.148 34.3005C35.4228 34.9379 36.495 35.9178 37.2443 37.1303C37.9937 38.3427 38.3906 39.7399 38.3906 41.1652Z" fill="#4B4B4B"/>
<path d="M38.3906 41.3438V44.1369C38.3906 44.7567 38.1956 45.3608 37.8332 45.8636C37.4707 46.3664 36.9593 46.7425 36.3713 46.9384C35.7652 47.1405 35.1098 47.1405 34.5037 46.9384C33.9157 46.7425 33.4043 46.3664 33.0418 45.8636C32.6794 45.3608 32.4844 44.7567 32.4844 44.1369V39.375H36.4219L38.3906 41.3438Z" fill="black"/>
<path d="M29.2432 45.9776L27.2745 47.9464C27.0897 48.1309 26.8392 48.2344 26.578 48.2343H24.1872C24.442 47.64 24.6093 47.2499 24.6093 47.2499H21.7768C20.8181 47.2508 19.8924 46.9007 19.1743 46.2656H26.1708L27.8504 44.5847C28.0351 44.4 28.2856 44.2963 28.5468 44.2963C28.808 44.2963 29.0585 44.4 29.2432 44.5847C29.428 44.7695 29.5317 45.02 29.5317 45.2812C29.5317 45.5424 29.428 45.7929 29.2432 45.9776V45.9776Z" fill="black"/>
<path d="M20.6718 39.375V40.5647C20.6718 41.0324 20.4861 41.4809 20.1554 41.8116C19.8247 42.1423 19.3761 42.3281 18.9085 42.3281H17.4726L17.3459 41.8212C17.2733 41.5309 17.2679 41.228 17.3299 40.9354C17.392 40.6427 17.5199 40.3681 17.704 40.1322C17.8881 39.8964 18.1235 39.7057 18.3924 39.5745C18.6612 39.4433 18.9564 39.375 19.2556 39.375H20.6718Z" fill="black"/>
<path d="M23.7249 57.6155C23.5421 57.6153 23.363 57.5643 23.2076 57.4682C23.0522 57.372 22.9266 57.2345 22.845 57.071C22.7633 56.9075 22.7288 56.7245 22.7452 56.5425C22.7617 56.3605 22.8284 56.1867 22.9381 56.0405C24.1122 54.476 25.0259 52.7322 25.6439 50.8763C25.6838 50.7525 25.7479 50.6379 25.8324 50.539C25.9169 50.4401 26.0202 50.3589 26.1363 50.3002C26.2523 50.2414 26.3789 50.2063 26.5086 50.1967C26.6383 50.1872 26.7687 50.2035 26.8921 50.2446C27.0155 50.2858 27.1295 50.351 27.2276 50.4364C27.3256 50.5219 27.4058 50.626 27.4634 50.7426C27.521 50.8592 27.5549 50.9861 27.5632 51.116C27.5714 51.2458 27.5539 51.376 27.5115 51.4989C26.8266 53.5555 25.8141 55.488 24.5131 57.2217C24.4214 57.3442 24.3024 57.4435 24.1656 57.5119C24.0287 57.5802 23.8778 57.6157 23.7249 57.6155V57.6155Z" fill="black"/>
<path d="M31.5 16.7344C32.4254 16.426 33.2725 15.9196 33.9823 15.2504C34.6921 14.5812 35.2474 13.7654 35.6098 12.8598L36.4219 10.8281L31.5 9.84375V16.7344Z" fill="#834B10"/>
<path d="M36.4219 10.8281L36.5372 11.001C37.7129 12.7647 39.3059 14.2107 41.1747 15.2109C43.0435 16.2111 45.1304 16.7344 47.25 16.7344V9.84375L36.4219 10.8281Z" fill="#834B10"/>
<path d="M35.3555 20.8359C36.035 20.8359 36.5859 20.285 36.5859 19.6055C36.5859 18.9259 36.035 18.375 35.3555 18.375C34.6759 18.375 34.125 18.9259 34.125 19.6055C34.125 20.285 34.6759 20.8359 35.3555 20.8359Z" fill="black"/>
<path d="M40.6055 20.8359C41.285 20.8359 41.8359 20.285 41.8359 19.6055C41.8359 18.9259 41.285 18.375 40.6055 18.375C39.9259 18.375 39.375 18.9259 39.375 19.6055C39.375 20.285 39.9259 20.8359 40.6055 20.8359Z" fill="black"/>
<path d="M45.2812 42.3281C45.0202 42.3281 44.7698 42.2244 44.5852 42.0398C44.4006 41.8552 44.2969 41.6048 44.2969 41.3438V34.4531C44.2969 34.1921 44.4006 33.9417 44.5852 33.7571C44.7698 33.5725 45.0202 33.4688 45.2812 33.4688C45.5423 33.4688 45.7927 33.5725 45.9773 33.7571C46.1619 33.9417 46.2656 34.1921 46.2656 34.4531V41.3438C46.2656 41.6048 46.1619 41.8552 45.9773 42.0398C45.7927 42.2244 45.5423 42.3281 45.2812 42.3281Z" fill="#C3C3C3"/>
<path d="M45.2812 47.25C46.9122 47.25 48.2344 45.9278 48.2344 44.2969C48.2344 42.6659 46.9122 41.3438 45.2812 41.3438C43.6503 41.3438 42.3281 42.6659 42.3281 44.2969C42.3281 45.9278 43.6503 47.25 45.2812 47.25Z" fill="#E4E4E2"/>
<path d="M45.2812 45.2812C45.8249 45.2812 46.2656 44.8405 46.2656 44.2969C46.2656 43.7532 45.8249 43.3125 45.2812 43.3125C44.7376 43.3125 44.2969 43.7532 44.2969 44.2969C44.2969 44.8405 44.7376 45.2812 45.2812 45.2812Z" fill="#C3C3C3"/>
<path d="M49.2188 60.0469H34.4531C33.6699 60.0469 32.9188 59.7357 32.365 59.1819C31.8111 58.6281 31.5 57.877 31.5 57.0938C31.5 56.3105 31.8111 55.5594 32.365 55.0056C32.9188 54.4518 33.6699 54.1406 34.4531 54.1406H35.4375C35.4375 53.6185 35.6449 53.1177 36.0141 52.7485C36.3833 52.3793 36.8841 52.1719 37.4062 52.1719H37.5752C38.0973 52.1719 38.598 52.3793 38.9672 52.7485L40.3594 54.1406H49.2188V60.0469Z" fill="#F6BB92"/>
<path d="M16.4745 55.4771C16.329 55.7993 16.2548 56.1491 16.2569 56.5025C16.259 56.856 16.3374 57.2049 16.4867 57.5253C16.636 57.8457 16.8527 58.1301 17.122 58.359C17.3913 58.588 17.7069 58.7561 18.0471 58.8519L21.8362 59.9225C22.5899 60.1354 23.3973 60.0403 24.0809 59.658C24.7644 59.2757 25.2681 58.6375 25.4811 57.8838C25.694 57.1302 25.5989 56.3228 25.2166 55.6393C24.8342 54.9558 24.1961 54.4522 23.4425 54.2392L22.495 53.9715C22.5653 53.7227 22.586 53.4625 22.5557 53.2058C22.5255 52.949 22.445 52.7007 22.3188 52.475C22.1926 52.2494 22.0232 52.0508 21.8202 51.8906C21.6173 51.7304 21.3848 51.6118 21.136 51.5415L20.9734 51.4956C20.7246 51.4253 20.4644 51.4047 20.2076 51.4349C19.9509 51.4652 19.7026 51.5457 19.4769 51.6719C18.361 52.2962 17.4747 53.2619 16.9484 54.4273L16.4745 55.4771Z" fill="#F6BB92"/>
<path d="M11.4496 23.625C12.3914 23.6251 13.2946 24.059 13.9606 24.8313L15.7498 26.9064L17.5389 24.8313C18.2049 24.059 19.1081 23.6251 20.0499 23.625C20.8419 23.625 21.6113 23.932 22.2356 24.4974C22.8598 25.0627 23.3033 25.8538 23.4953 26.745C23.7126 27.7525 23.6558 28.8133 23.3329 29.7821C23.01 30.7508 22.4367 31.58 21.6916 32.1561L15.75 36.75L9.8084 32.1561C9.06327 31.58 8.48997 30.7508 8.16706 29.7821C7.84416 28.8133 7.78745 27.7525 8.0047 26.745C8.19674 25.8539 8.64009 25.0628 9.26427 24.4975C9.88845 23.9322 10.6576 23.6251 11.4496 23.625V23.625Z" fill="#5D62B5"/>
<path d="M31.5 16.7344H32.4844V22.6406H31.5V16.7344Z" fill="#EEB58E"/>
<path d="M46.2656 16.7344H47.25V22.6406H46.2656V16.7344Z" fill="#EEB58E"/>
<path d="M35.5601 33.5765L39.3755 37.4062L43.1512 33.6058C42.9213 33.5675 42.7125 33.4489 42.5619 33.2711C42.4113 33.0933 42.3286 32.8679 42.3286 32.6349V29.5312H36.4224V32.5998C36.4224 32.8397 36.3347 33.0714 36.1759 33.2512C36.0171 33.4311 35.7981 33.5468 35.5601 33.5765V33.5765Z" fill="#F6BB92"/>
<path d="M39.375 31.5C36.5902 31.5 33.9195 30.532 31.9504 28.809C29.9812 27.0861 28.875 24.7492 28.875 22.3125V21H49.875V22.3125C49.875 24.7492 48.7688 27.0861 46.7996 28.809C44.8305 30.532 42.1598 31.5 39.375 31.5Z" fill="#5D62B5"/>
<path d="M27.5625 41.3438C28.1062 41.3438 28.5469 40.903 28.5469 40.3594C28.5469 39.8157 28.1062 39.375 27.5625 39.375C27.0188 39.375 26.5781 39.8157 26.5781 40.3594C26.5781 40.903 27.0188 41.3438 27.5625 41.3438Z" fill="black"/>
</svg>

<svg width="63" height="63" fill="none" xmlns="http://www.w3.org/2000/svg">
  <path d="M48.234 54.14v-8.859h5.907V56.11a3.937 3.937 0 01-3.938 3.938h-1.969V54.14z" fill="#F6BB92"/>
  <path d="M52.879 39.375l.948-2.333.84-2.07c.451-1.113.572-2.34.349-3.524a6.154 6.154 0 00-1.604-3.127 6.198 6.198 0 01-1.712-4.296v-5.65H27.05v5.65a6.199 6.199 0 01-1.712 4.296 6.153 6.153 0 00-1.604 3.127 6.295 6.295 0 00.348 3.524l.89 2.2 27.907 2.203z" fill="#834B10"/>
  <path d="M54.14 40.441a5.906 5.906 0 00-4.935-5.826l-.97-.162-5.084-.847-3.776 3.8-3.815-3.83-7.013.877v25.594h19.687v-7.875a5.57 5.57 0 00.783-6.89h5.124V40.44z" fill="#5D62B5"/>
  <path d="M52.5 23.625H26.25v-7.412c0-3.604 1.383-7.06 3.844-9.608 2.462-2.548 5.8-3.98 9.281-3.98 3.481 0 6.82 1.432 9.28 3.98 2.462 2.548 3.845 6.004 3.845 9.608v7.412z" fill="#834B10"/>
  <path d="M47.25 16.734v-.984l-.984-4.922H32.484L31.5 15.75v.984a2.953 2.953 0 00-2.953 2.953c0 .784.311 4.697.865 5.25.554.554.274-.16 1.058-.16l-.282.16H31.5c0 1.828 1.71 2.268 3.003 3.56a6.89 6.89 0 009.744 0c1.293-1.292 2.019-1.893 2.019-3.72l.984.16h1.313c.783 0 .221.393.775-.16.554-.555.865-4.306.865-5.09a2.953 2.953 0 00-2.953-2.953z" fill="#F6BB92"/>
  <path d="M38.39 41.165v18.882H16.366a19.004 19.004 0 012.55-3.165l.072-.073a19.512 19.512 0 004.148-6.12c.387-.9.772-1.801 1.052-2.455l.422-.984h-2.832a3.94 3.94 0 01-3.82-2.983l-.484-1.939-.127-.507a1.969 1.969 0 011.91-2.446h3.385a8.41 8.41 0 013.653-4.555l.43-.258a7.68 7.68 0 017.38-.284l.044.023a7.675 7.675 0 014.243 6.864z" fill="#4B4B4B"/>
  <path d="M38.39 41.344v2.793a2.953 2.953 0 11-5.906 0v-4.762h3.938l1.969 1.969zM29.243 45.978l-1.968 1.968a.985.985 0 01-.697.288h-2.39l.421-.984h-2.832c-.959 0-1.885-.35-2.603-.984h6.997l1.68-1.681a.985.985 0 011.392 1.393zM20.672 39.375v1.19a1.763 1.763 0 01-1.764 1.763h-1.435l-.127-.507a1.969 1.969 0 011.91-2.446h1.416zM23.725 57.615a.986.986 0 01-.787-1.575 18.164 18.164 0 002.706-5.164.984.984 0 111.868.623 20.133 20.133 0 01-2.999 5.723.983.983 0 01-.788.393z" fill="#000"/>
  <path d="M31.5 16.734a6.712 6.712 0 004.11-3.874l.812-2.032-4.922-.984v6.89zM36.422 10.828l.115.173a12.875 12.875 0 0010.713 5.733v-6.89l-10.828.984z" fill="#834B10"/>
  <path d="M35.355 20.836a1.23 1.23 0 100-2.461 1.23 1.23 0 000 2.46zM40.605 20.836a1.23 1.23 0 100-2.461 1.23 1.23 0 000 2.46z" fill="#000"/>
  <path d="M45.281 42.328a.984.984 0 01-.984-.984v-6.89a.984.984 0 011.969 0v6.89a.984.984 0 01-.985.984z" fill="#C3C3C3"/>
  <path d="M45.281 47.25a2.953 2.953 0 100-5.906 2.953 2.953 0 000 5.906z" fill="#E4E4E2"/>
  <path d="M45.281 45.281a.984.984 0 100-1.968.984.984 0 000 1.968z" fill="#C3C3C3"/>
  <path d="M49.219 60.047H34.453a2.953 2.953 0 010-5.906h.984a1.969 1.969 0 011.97-1.97h.168c.522 0 1.023.208 1.392.578l1.392 1.392h8.86v5.906zM16.474 55.477a2.456 2.456 0 001.573 3.375l3.79 1.07a2.954 2.954 0 001.605-5.683l-.947-.267a1.968 1.968 0 00-1.359-2.43l-.163-.046a1.97 1.97 0 00-1.496.176 5.975 5.975 0 00-2.529 2.755l-.474 1.05z" fill="#F6BB92"/>
  <path d="M11.45 23.625c.941 0 1.845.434 2.51 1.206l1.79 2.075 1.789-2.075c.666-.772 1.57-1.206 2.51-1.206.793 0 1.562.307 2.187.872.624.566 1.067 1.357 1.26 2.248a5.796 5.796 0 01-.163 3.037c-.323.969-.896 1.798-1.641 2.374L15.75 36.75l-5.942-4.594c-.745-.576-1.318-1.405-1.64-2.374a5.796 5.796 0 01-.163-3.037c.192-.891.635-1.682 1.26-2.248.623-.565 1.393-.872 2.185-.872z" fill="#5D62B5"/>
  <path d="M31.5 16.734h.984v5.907H31.5v-5.907zM46.266 16.734h.984v5.907h-.984v-5.907z" fill="#EEB58E"/>
  <path d="M35.56 33.577l3.816 3.83 3.775-3.801a.984.984 0 01-.822-.971V29.53h-5.907V32.6a.984.984 0 01-.862.977z" fill="#F6BB92"/>
  <path d="M39.375 31.5c-2.785 0-5.456-.968-7.425-2.691-1.969-1.723-3.075-4.06-3.075-6.497V21h21v1.313c0 2.436-1.106 4.773-3.075 6.496-1.97 1.723-4.64 2.691-7.425 2.691z" fill="#5D62B5"/>
  <path d="M27.563 41.344a.984.984 0 100-1.969.984.984 0 000 1.969z" fill="#000"/>
</svg>
